svgs/vkontakte.svg

<svg width="24" height="24" viewBox="0 0 24 24" fill="none" xmlns="http://www.w3.org/2000/svg">
<path fill-rule="evenodd" clip-rule="evenodd" d="M21.5411 6.80428C21.6801 6.34067 21.5411 6 20.8794 6H18.6914C18.135 6 17.8786 6.29429 17.7395 6.6188C17.7395 6.6188 16.6268 9.33092 15.0505 11.0926C14.5406 11.6026 14.3087 11.7648 14.0306 11.7648C13.8915 11.7648 13.6902 11.6026 13.6902 11.139V6.80429C13.6902 6.24795 13.5287 6 13.0651 6H9.62678C9.27911 6 9.07003 6.25821 9.07003 6.50292C9.07003 7.03032 9.85811 7.15195 9.93935 8.63552V11.8576C9.93935 12.564 9.81177 12.6921 9.5336 12.6921C8.79186 12.6921 6.98756 9.96786 5.91744 6.85063C5.70773 6.24474 5.49738 6 4.93819 6H2.75018C2.12504 6 2 6.29429 2 6.6188C2 7.19833 2.74178 10.0727 5.45387 13.8743C7.26191 16.4704 9.80932 17.8778 12.1274 17.8778C13.5182 17.8778 13.6902 17.5652 13.6902 17.0268V15.0646C13.6902 14.4395 13.822 14.3147 14.2624 14.3147C14.5869 14.3147 15.1433 14.477 16.4414 15.7287C17.9249 17.2122 18.1695 17.8778 19.004 17.8778H21.192C21.8171 17.8778 22.1297 17.5652 21.9494 16.9483C21.752 16.3336 21.0437 15.4416 20.1039 14.3842C19.5939 13.7815 18.8289 13.1325 18.5971 12.8079C18.2726 12.3907 18.3653 12.2053 18.5971 11.8344C18.5971 11.8344 21.2629 8.07918 21.5411 6.80428V6.80428Z" fill="white"/>
</svg>

<svg xmlns="http://www.w3.org/2000/svg" viewBox="0 0 24 24"><path fill-rule="evenodd" d="M21.541 6.804c.14-.463 0-.804-.662-.804h-2.188c-.556 0-.812.294-.951.619 0 0-1.113 2.712-2.69 4.474-.51.51-.741.672-1.02.672-.138 0-.34-.162-.34-.626V6.804c0-.556-.161-.804-.625-.804H9.627c-.348 0-.557.258-.557.503 0 .527.788.649.87 2.133v3.222c0 .706-.128.834-.406.834-.742 0-2.546-2.724-3.617-5.841-.21-.606-.42-.851-.979-.851H2.75c-.625 0-.75.294-.75.619 0 .58.742 3.454 3.454 7.255 1.808 2.596 4.355 4.004 6.673 4.004 1.391 0 1.563-.313 1.563-.851v-1.962c0-.625.132-.75.572-.75.325 0 .881.162 2.18 1.414 1.483 1.483 1.727 2.149 2.562 2.149h2.188c.625 0 .938-.313.757-.93-.197-.614-.905-1.506-1.845-2.564-.51-.603-1.275-1.251-1.507-1.576-.324-.417-.232-.603 0-.974 0 0 2.666-3.755 2.944-5.03"/></svg>
